symbols/web/pin_drop/materialsymbolsrounded/pin_drop_wght700gradN25_40px.svg

<svg xmlns="http://www.w3.org/2000/svg" height="40" width="40"><path d="M20 25.792q3.875-3.209 5.896-6.167 2.021-2.958 2.021-5.458 0-2.209-.834-3.771-.833-1.563-2.021-2.5Q23.875 6.958 22.5 6.5q-1.375-.458-2.5-.458-1.167 0-2.521.458-1.354.458-2.541 1.396-1.188.937-2 2.5-.813 1.562-.813 3.812 0 2.459 2 5.417 2 2.958 5.875 6.167Zm0 4.541q-.5 0-1-.166-.5-.167-.875-.5-5.208-4.167-7.708-7.979-2.5-3.813-2.5-7.521 0-3 1.083-5.334 1.083-2.333 2.812-3.895 1.73-1.563 3.896-2.355 2.167-.791 4.292-.791t4.292.791q2.166.792 3.896 2.355 1.729 1.562 2.833 3.895 1.104 2.334 1.104 5.334 0 3.708-2.521 7.521-2.521 3.812-7.729 7.979-.333.333-.854.5-.521.166-1.021.166Zm.042-12.625q1.541 0 2.646-1.125 1.104-1.125 1.104-2.666 0-1.584-1.104-2.688-1.105-1.104-2.646-1.104-1.584 0-2.688 1.104t-1.104 2.688q0 1.541 1.104 2.666t2.688 1.125ZM10 38.167q-.875 0-1.479-.605-.604-.604-.604-1.479 0-.875.604-1.5T10 33.958h20q.875 0 1.5.625t.625 1.5q0 .875-.625 1.479-.625.605-1.5.605Zm10-24Z"/></svg>

<svg xmlns="http://www.w3.org/2000/svg" height="40" width="40"><path d="M20 25.792Q23.875 22.583 25.896 19.625Q27.917 16.667 27.917 14.167Q27.917 11.958 27.083 10.396Q26.25 8.833 25.062 7.896Q23.875 6.958 22.5 6.5Q21.125 6.042 20 6.042Q18.833 6.042 17.479 6.5Q16.125 6.958 14.938 7.896Q13.75 8.833 12.938 10.396Q12.125 11.958 12.125 14.208Q12.125 16.667 14.125 19.625Q16.125 22.583 20 25.792ZM20 30.333Q19.5 30.333 19 30.167Q18.5 30 18.125 29.667Q12.917 25.5 10.417 21.688Q7.917 17.875 7.917 14.167Q7.917 11.167 9 8.833Q10.083 6.5 11.812 4.938Q13.542 3.375 15.708 2.583Q17.875 1.792 20 1.792Q22.125 1.792 24.292 2.583Q26.458 3.375 28.188 4.938Q29.917 6.5 31.021 8.833Q32.125 11.167 32.125 14.167Q32.125 17.875 29.604 21.688Q27.083 25.5 21.875 29.667Q21.542 30 21.021 30.167Q20.5 30.333 20 30.333ZM20.042 17.708Q21.583 17.708 22.688 16.583Q23.792 15.458 23.792 13.917Q23.792 12.333 22.688 11.229Q21.583 10.125 20.042 10.125Q18.458 10.125 17.354 11.229Q16.25 12.333 16.25 13.917Q16.25 15.458 17.354 16.583Q18.458 17.708 20.042 17.708ZM10 38.167Q9.125 38.167 8.521 37.562Q7.917 36.958 7.917 36.083Q7.917 35.208 8.521 34.583Q9.125 33.958 10 33.958H30Q30.875 33.958 31.5 34.583Q32.125 35.208 32.125 36.083Q32.125 36.958 31.5 37.562Q30.875 38.167 30 38.167ZM20 14.167Q20 14.167 20 14.167Q20 14.167 20 14.167Q20 14.167 20 14.167Q20 14.167 20 14.167Q20 14.167 20 14.167Q20 14.167 20 14.167Q20 14.167 20 14.167Q20 14.167 20 14.167Q20 14.167 20 14.167Q20 14.167 20 14.167Q20 14.167 20 14.167Q20 14.167 20 14.167Z"/></svg>
